X: 17
M:4/4
L:1/8
K:G
|: Bc| d2 B2 dcAB| c2 E2 GA D2| G3 F GABc| dedc B2 gf| e2 dc (3BcB A2| B2 G2 E2 G| FGAF D2 (3DEF| G4 G2:|

